portfolio/adventure/img/svg/behance.svg

<svg xmlns="http://www.w3.org/2000/svg" width="17" height="12"><path d="M11.349 1.06h4.301v1.08h-4.301V1.06zm5.932 6.393h-5.599c.06 1.335.72 1.827 1.906 1.827.856 0 1.547-.268 1.682-.744h1.707c-.599 1.81-1.707 2.33-3.464 2.33-2.447 0-3.963-1.66-3.963-4.032 0-2.299 1.607-4.049 3.963-4.049 2.642 0 3.918 2.311 3.768 4.668zm-5.599-1.567h3.468c-.196-1.067-.662-1.513-1.698-1.513-1.35 0-1.74.921-1.77 1.513zM8.99 7.588c0 2.151-1.847 3.071-3.783 3.071H.013V.005h5.045c2.041 0 3.422.719 3.422 2.691 0 1.039-.525 1.765-1.457 2.21C8.33 5.277 8.99 6.27 8.99 7.588zM4.374 1.797H2.168v2.476h2.386c.826 0 1.441-.37 1.441-1.259 0-1.009-.78-1.217-1.621-1.217zm.36 4.062H2.168v2.907h2.521c.931 0 1.741-.296 1.741-1.394 0-1.082-.69-1.513-1.696-1.513z" fill-rule="evenodd"/></svg>

<svg xmlns="http://www.w3.org/2000/svg" xmlns:xlink="http://www.w3.org/1999/xlink" preserveaspectratio="xMidYMid" width="17" height="12" viewbox="0 0 17 12">
  <defs>
  </defs>
  <path d="M11.349,1.060 C11.349,1.060 15.650,1.060 15.650,1.060 C15.650,1.060 15.650,2.140 15.650,2.140 C15.650,2.140 11.349,2.140 11.349,2.140 C11.349,2.140 11.349,1.060 11.349,1.060 ZM17.281,7.453 C17.281,7.453 11.682,7.453 11.682,7.453 C11.742,8.788 12.402,9.280 13.588,9.280 C14.444,9.280 15.135,9.012 15.270,8.536 C15.270,8.536 16.977,8.536 16.977,8.536 C16.378,10.346 15.270,10.866 13.513,10.866 C11.066,10.866 9.550,9.206 9.550,6.834 C9.550,4.535 11.157,2.785 13.513,2.785 C16.155,2.785 17.431,5.096 17.281,7.453 ZM11.682,5.886 C11.682,5.886 15.150,5.886 15.150,5.886 C14.954,4.819 14.488,4.373 13.452,4.373 C12.102,4.373 11.712,5.294 11.682,5.886 ZM8.990,7.588 C8.990,9.739 7.143,10.659 5.207,10.659 C5.207,10.659 0.013,10.659 0.013,10.659 C0.013,10.659 0.013,0.005 0.013,0.005 C0.013,0.005 5.058,0.005 5.058,0.005 C7.099,0.005 8.480,0.724 8.480,2.696 C8.480,3.735 7.955,4.461 7.023,4.906 C8.330,5.277 8.990,6.270 8.990,7.588 ZM4.374,1.797 C4.374,1.797 2.168,1.797 2.168,1.797 C2.168,1.797 2.168,4.273 2.168,4.273 C2.168,4.273 4.554,4.273 4.554,4.273 C5.380,4.273 5.995,3.903 5.995,3.014 C5.995,2.005 5.215,1.797 4.374,1.797 ZM4.734,5.859 C4.734,5.859 2.168,5.859 2.168,5.859 C2.168,5.859 2.168,8.766 2.168,8.766 C2.168,8.766 4.689,8.766 4.689,8.766 C5.620,8.766 6.430,8.470 6.430,7.372 C6.430,6.290 5.740,5.859 4.734,5.859 Z" id="behance" fill-rule="evenodd"/>
</svg>
